svgs/fedilab.svg

<svg width="192" height="192" viewBox="0 0 192 192" fill="none" xmlns="http://www.w3.org/2000/svg">
<path d="M57.6434 107.114C50.8007 96.7957 47.6187 84.7437 48.4107 72.1447C49.6873 51.8344 62.1002 33.7513 80.6871 25.1246C93.8341 19.0226 109.627 18.3306 123.244 23.2599C139.401 29.1086 151.883 41.859 157.332 58.0819C158.624 61.9278 159.461 65.6334 159.11 65.9523C158.736 66.292 154.901 65.826 153.927 65.3225C153.258 64.9765 152.823 64.3472 151.92 62.4186C150.558 59.5106 149.468 58.0785 147.473 56.5773C143.158 53.3299 137.869 52.8135 133.053 55.1693C130.971 56.1878 129.234 57.7241 127.663 59.938C127.004 60.866 126.208 61.5426 124.985 62.2143C123.279 63.151 123.185 63.1698 120.298 63.1542C117.049 63.1367 115.192 62.8093 113.302 61.9213C111.469 61.0593 110.497 59.9245 109.512 57.4946C107.577 52.7231 104.601 49.3718 100.52 47.368C97.2732 45.7736 95.1829 45.2516 92.0453 45.2516C88.9723 45.2516 86.8259 45.7723 83.8134 47.2487C76.4745 50.8455 72.3579 59.0756 73.8528 67.1625C74.2204 69.1508 75.5728 72.6896 76.5911 74.3278C77.4641 75.7321 77.8173 78.2219 77.471 80.531C77.2169 82.2258 61.037 109.996 60.2325 110.118C59.8028 110.184 59.2634 109.557 57.6434 107.114Z" stroke="black" stroke-width="8" stroke-linecap="round" stroke-linejoin="round"/>
<path d="M49.5716 171.516C45.2585 170.606 42.2287 169.046 38.9946 166.069C27.5468 155.531 30.6175 136.392 44.8009 129.879C47.969 128.424 50.375 128.015 54.7479 128.188C58.812 128.349 60.3017 128.094 62.1394 126.921C63.6232 125.973 64.0652 125.381 67.0415 120.35C69.7301 115.805 69.8578 115.641 71.2598 114.927L72.7056 114.191H79.0328C84.7365 114.191 85.5228 114.246 87.0116 114.748C89.2839 115.516 91.576 117.06 92.9846 118.773C96.2862 122.788 98.8581 124.585 102.171 125.191C107.45 126.156 113.887 122.657 116.313 117.501C118.251 113.385 118.24 109.473 116.279 105.479C112.107 96.9831 103.855 93.2419 97.7758 99.7979C92.8406 105.12 90.2304 103.127 86.9935 103.97C84.9623 104.499 79.9891 104.506 78.7331 103.981C78.5927 99.0228 80.7888 94.9694 84.3574 91.3452C84.8926 90.7847 86.1118 89.9411 87.0669 89.4706C88.7165 88.658 88.9443 88.6177 91.6167 88.6653C95.2466 88.7299 97.8558 88.2162 100.562 86.9033C103.23 85.6093 105.632 83.4869 107.589 80.6932C109.662 77.7349 112.351 76.1624 115.335 76.1624C116.892 76.1624 123.058 77.1225 124.732 77.6258C126.272 78.0887 126.425 78.2283 127.4 80.0736C129.698 84.4227 133.17 86.8804 138.189 87.7092C139.691 87.9574 140.392 87.9356 142.096 87.588C146.061 86.7795 147.752 85.6618 151.792 81.1791C153.115 79.7109 154.619 79.354 157.878 79.7353C159.835 79.9644 160.602 80.1636 160.811 80.497C161.266 81.2237 160.603 89.6453 159.787 93.4934C157.953 102.149 154.218 110.328 149.113 116.868C147.11 119.434 142.43 124.154 139.828 126.231C126.063 137.218 108.015 141.001 90.5785 136.555C85.1834 135.179 81.3537 134.457 76.8289 131.404C74.969 130.074 74.7624 129.781 74.0051 131.598C72.9581 134.396 70.6029 134.834 72.4201 137.388C73.5045 138.913 74.8266 141.843 75.4398 144.082C76.1159 146.551 76.25 151.674 75.7083 154.347C73.2713 166.374 61.5846 174.052 49.5716 171.516Z" stroke="black" stroke-width="8" stroke-linecap="round" stroke-linejoin="round"/>
</svg>

<svg width="192" height="192" viewBox="0 0 192 192" fill="none" xmlns="http://www.w3.org/2000/svg"><path d="M57.643 107.114c-6.842-10.318-10.024-22.37-9.232-34.97 1.276-20.31 13.69-38.393 32.276-47.02 13.147-6.101 28.94-6.793 42.557-1.864 16.157 5.849 28.639 18.599 34.088 34.822 1.292 3.846 2.129 7.551 1.778 7.87-.374.34-4.209-.126-5.183-.63-.669-.346-1.104-.975-2.007-2.903-1.362-2.908-2.452-4.34-4.447-5.842-4.315-3.247-9.604-3.764-14.42-1.408-2.082 1.019-3.819 2.555-5.39 4.769-.659.928-1.455 1.605-2.678 2.276-1.706.937-1.8.956-4.687.94-3.249-.017-5.106-.345-6.996-1.233-1.833-.862-2.805-1.996-3.79-4.426-1.935-4.772-4.911-8.123-8.992-10.127-3.247-1.594-5.337-2.116-8.475-2.116-3.073 0-5.22.52-8.232 1.997-7.338 3.596-11.455 11.827-9.96 19.913.367 1.989 1.72 5.528 2.738 7.166.873 1.404 1.226 3.894.88 6.203-.254 1.695-16.434 29.465-17.239 29.587-.43.066-.969-.561-2.589-3.004Z" stroke="#000" stroke-width="8" stroke-linecap="round" stroke-linejoin="round"/><path d="M49.572 171.516c-4.314-.91-7.343-2.47-10.577-5.447-11.448-10.538-8.377-29.677 5.806-36.19 3.168-1.455 5.574-1.864 9.947-1.691 4.064.161 5.554-.094 7.391-1.267 1.484-.948 1.926-1.54 4.902-6.571 2.69-4.545 2.817-4.709 4.219-5.423l1.446-.736h6.327c5.704 0 6.49.055 7.979.557 2.272.768 4.564 2.312 5.973 4.025 3.301 4.015 5.873 5.812 9.186 6.418 5.279.965 11.716-2.534 14.142-7.69 1.938-4.116 1.927-8.028-.034-12.022-4.172-8.496-12.424-12.237-18.503-5.681-4.935 5.322-7.546 3.329-10.782 4.172-2.032.529-7.005.536-8.26.011-.141-4.958 2.055-9.012 5.623-12.636.536-.56 1.755-1.404 2.71-1.874 1.65-.813 1.877-.853 4.55-.806 3.63.065 6.239-.449 8.945-1.762 2.668-1.294 5.07-3.416 7.027-6.21 2.073-2.958 4.762-4.53 7.746-4.53 1.557 0 7.723.96 9.397 1.463 1.54.463 1.693.602 2.668 2.448 2.298 4.349 5.77 6.806 10.789 7.635 1.502.248 2.203.227 3.907-.121 3.965-.808 5.656-1.926 9.696-6.409 1.323-1.468 2.827-1.825 6.086-1.444 1.957.23 2.724.429 2.933.762.455.727-.208 9.148-1.024 12.996-1.834 8.656-5.569 16.835-10.674 23.375-2.003 2.566-6.683 7.286-9.285 9.363-13.765 10.987-31.813 14.77-49.25 10.324-5.395-1.376-9.224-2.098-13.75-5.151-1.859-1.33-2.066-1.623-2.823.194-1.047 2.798-3.402 3.236-1.585 5.79 1.084 1.525 2.407 4.455 3.02 6.694.676 2.469.81 7.592.268 10.265a21.97 21.97 0 0 1-26.136 17.169Z" stroke="#000" stroke-width="8" stroke-linecap="round" stroke-linejoin="round"/></svg>
